X:101
T:Rosicrucian canon (expanded to play as a round)
Z:Jack Campin <http://www.campin.me.uk/> version 1.3 Jan 2007
C:Michael Maier
N:see Hermetic Journal no 5 (1979) pp.4-7
V:1 program 1 74      transpose -12 % archangel Gabriel
V:2 program 1 74      transpose -12 % archangel Raphael
V:3 program 1 74      transpose -12 % archangel Uriel
V:4 program 1 74      transpose -12 % archangel Michael
V:5 program 1 70 bass transpose -12 % shepherds Menaleas and Thirsis (cantus firmus)
M:none
L:1/4
Q:1/2=80
K:D minor
[V:1] x8            |x8                 |x4   ||\
      f3  e d2   f2 |ed2  c/B/ c4       |B2 B2||\
      d3  e f2   a2-|ad' b3      a/g/ a2|b4   ||\
      B2 FF B2   A2-|Ad  f3      e/d/ c2|f4   ||\
      F2 B2 F F  c2 |A2  F2    A4       |d4   ||\
      x8            |x8                 |x4   ||\
      x8            |x8                 |x4   ||\
      x8            |x8                 |x4   ||\
      x8            |x8                 |x4   |]
%
[V:2] x8            |x8                 |x4   ||\
      x8            |x8                 |x4   ||\
      f3  e d2   f2 |ed2  c/B/ c4       |B2 B2||\
      d3  e f2   a2-|ad' b3      a/g/ a2|b4   ||\
      B2 FF B2   A2-|Ad  f3      e/d/ c2|f4   ||\
      F2 B2 F F  c2 |A2  F2    A4       |d4   ||\
      x8            |x8                 |x4   ||\
      x8            |x8                 |x4   ||\
      x8            |x8                 |x4   |]
%
[V:3] x8            |x8                 |x4   ||\
      x8            |x8                 |x4   ||\
      x8            |x8                 |x4   ||\
      f3  e d2   f2 |ed2  c/B/ c4       |B2 B2||\
      d3  e f2   a2-|ad' b3      a/g/ a2|b4   ||\
      B2 FF B2   A2-|Ad  f3      e/d/ c2|f4   ||\
      F2 B2 F F  c2 |A2  F2    A4       |d4   ||\
      x8            |x8                 |x4   ||\
      x8            |x8                 |x4   |]
%
[V:4] x8            |x8                 |x4   ||\
      x8            |x8                 |x4   ||\
      x8            |x8                 |x4   ||\
      x8            |x8                 |x4   ||\
      f3  e d2   f2 |ed2  c/B/ c4       |B2 B2||\
      d3  e f2   a2-|ad' b3      a/g/ a2|b4   ||\
      B2 FF B2   A2-|Ad  f3      e/d/ c2|f4   ||\
      F2 B2 F F  c2 |A2  F2    A4       |d4   ||\
      x8            |x8                 |x4   |]
%
[V:5] z2 B,3  B, F,2|A,2 B,2   F4       |B,4  ||\
      z2 B,3  B, F,2|A,2 B,2   F4       |B,4  ||\
      z2 B,3  B, F,2|A,2 B,2   F4       |B,4  ||\
      z2 B,3  B, F,2|A,2 B,2   F4       |B,4  ||\
      z2 B,3  B, F,2|A,2 B,2   F4       |B,4  ||\
      z2 B,3  B, F,2|A,2 B,2   F4       |B,4  ||\
      z2 B,3  B, F,2|A,2 B,2   F4       |B,4  ||\
      z2 B,3  B, F,2|A,2 B,2   F4       |B,4  ||\
      z2 B,3  B, F,2|A,2 B,2   F4       |B,4  ||
% == end of file =======================================================
